<?xml version="1.0" encoding="UTF-8"?>
<map version="1.10" tiledversion="1.12.1" orientation="orthogonal" renderorder="right-down" width="30" height="22" tilewidth="32" tileheight="32" infinite="0" nextlayerid="3" nextobjectid="10">
 <objectgroup id="2" name="entities">
  <object id="1" name="Platform" type="Platform" x="40.9115" y="562.582" width="390.131" height="52.7654"/>
  <object id="2" name="Mushroom" type="Mushroom" x="450.796" y="325.408" width="59.8115" height="45.8136"/>
  <object id="4" name="Platform" type="Platform" x="307.674" y="480.394" width="388.112" height="44.6893"/>
  <object id="5" name="PlayerStart" type="PlayerStart" x="99.9424" y="494.663" width="60.571" height="51.4854"/>
  <object id="7" name="KillVolume" type="KillVolume" x="42.3997" y="629.938" width="895.441" height="36.3426"/>
  <object id="8" name="GoalTrigger" type="GoalTrigger" x="773.29" y="311.94" width="28.2665" height="26.2474"/>
  <object id="9" name="Platform" type="Platform" x="444.968" y="393.576" width="388.112" height="44.6893"/>
 </objectgroup>
</map>
